X: 239
T: Martha Campbell [1]
B: canberra pickers and fiddlers
B: tunes
M:2/2
L:1/8
Q: 1/2=100
K:D
V:1 
"D"""DEFA BFAF|DEFA BFAF|DEFA B2A2|"A"[C2A2][B,2G2][A,4E4]|
"D"DEFA BFAF|DEFA BdBd|"G"ABde fgfe|"A"dBAG "D"F(D D2):|
|:"D"Bcdd fdfd|efde fdfd|ABde f2d2|"A"fedf edBd|
"D"ABde fdfd|efde fdfg|"G"abag fgfe|"A"dBAG "D"F(D D2):|
% abcbook-tune_id 63ae8f1c98368cfa3dd6ec09
% abcbook-tune_composer_id 
% abcbook-link-0 https://www.youtube.com/watch?v=Ktw9hgK-eFU
% abcbook-boost 0
% abcbook-difficulty 0
% abcbook-tags canberra pickers and fiddlers,old time tunes,© free
% abcbook-tablature 
% abcbook-transpose 
% abcbook-tuning ADAE
% abcbook-lastupdated 1672384284224
% abcbook-src-url https://tunebook.net/scrape/tunes.abc
% abcbook-soundfonts 
% abcbook-repeats 1


